X: 39663
T: Tending The Steer With A Heavy Heart
R: slip jig
M: 9/8
K: Bminor
dBB B2A BAG|dBB Bcd efg|dBB B2A BAG|eAA dBG A2e:|
B<GB g2e fed|B<GB g2e f3|B<GB g2e fed|eAA ABd e3|
B<GB g2e fed|B<GB g2e f2d|def g2e fed|eAA ABd efg||

